tools/download-figma-icons/icons/outlined-large/semi-detached-house.svg

<svg width="64" height="64" viewBox="0 0 64 64" fill="none" xmlns="http://www.w3.org/2000/svg">
<path fill-rule="evenodd" clip-rule="evenodd" d="M56.9984 61H58.4982C59.3281 61 59.998 61.67 59.998 62.5C59.998 63.33 59.3281 64 58.4982 64H5.50501C4.67511 64 4.0052 63.33 4.0052 62.5C4.0052 61.67 4.67511 61 5.50501 61H7.00481V30H5.50501C4.98507 30 4.51513 29.73 4.23517 29.3C3.95521 28.87 3.92521 28.32 4.14518 27.86L10.7643 13.86C11.0143 13.33 11.5442 13 12.1242 13H15.0038V7.5C15.0038 6.67 15.6737 6 16.5036 6H22.5028C23.3327 6 24.0026 6.67 24.0026 7.5V13H51.8791C52.459 13 52.9889 13.34 53.2389 13.86L59.858 27.86C60.078 28.32 60.038 28.87 59.7681 29.3C59.4881 29.74 59.0082 30 58.4982 30H56.9984V61ZM33.5014 27H56.1285H56.1385L50.9292 16H33.5014V27ZM21.003 9H18.0034V13H21.003V9ZM30.5018 16H13.084L7.8747 27H30.5018V16ZM30.5018 30H10.0044V61H14.0039V46.5C14.0039 45.67 14.6738 45 15.5037 45H24.5026C25.3325 45 26.0024 45.67 26.0024 46.5V61H30.5018V30ZM17.0035 48V61H23.0028V48H17.0035ZM41.0005 48V61H46.9997V48H41.0005ZM49.9993 46.5V61H53.9988V30H33.5014V61H38.0008V46.5C38.0008 45.67 38.6708 45 39.5007 45H48.4995C49.3294 45 49.9993 45.67 49.9993 46.5ZM15.5038 42H24.5026C25.3325 42 26.0024 41.33 26.0024 40.5V34.5C26.0024 33.67 25.3325 33 24.5026 33H15.5038C14.6739 33 14.004 33.67 14.004 34.5V40.5C14.004 41.33 14.6739 42 15.5038 42ZM17.0036 36H23.0028V39H17.0036V36ZM48.4995 33H39.5007C38.6708 33 38.0009 33.67 38.0009 34.5V40.5C38.0009 41.33 38.6708 42 39.5007 42H48.4995C49.3294 42 49.9994 41.33 49.9994 40.5V34.5C49.9994 33.67 49.3294 33 48.4995 33ZM46.9997 39H41.0005V36H46.9997V39Z" fill="black"/>
</svg>

<svg width="64" height="64" viewBox="0 0 64 64" fill="none" xmlns="http://www.w3.org/2000/svg"><path fill-rule="evenodd" clip-rule="evenodd" d="M56.998 61h1.5c.83 0 1.5.67 1.5 1.5s-.67 1.5-1.5 1.5H5.505c-.83 0-1.5-.67-1.5-1.5s.67-1.5 1.5-1.5h1.5V30h-1.5c-.52 0-.99-.27-1.27-.7a1.48 1.48 0 0 1-.09-1.44l6.62-14a1.5 1.5 0 0 1 1.36-.86h2.879V7.5c0-.83.67-1.5 1.5-1.5h5.999c.83 0 1.5.67 1.5 1.5V13h27.876c.58 0 1.11.34 1.36.86l6.619 14c.22.46.18 1.01-.09 1.44-.28.44-.76.7-1.27.7h-1.5v31ZM33.501 27H56.14l-5.21-11H33.501v11ZM21.003 9h-3v4h3V9Zm9.499 7H13.084l-5.21 11h22.628V16Zm0 14H10.004v31h4V46.5c0-.83.67-1.5 1.5-1.5h8.999c.83 0 1.5.67 1.5 1.5V61h4.499V30ZM17.004 48v13h5.999V48h-6ZM41 48v13h6V48h-6Zm8.998-1.5V61h4V30H33.5v31H38V46.5c0-.83.67-1.5 1.5-1.5h8.998c.83 0 1.5.67 1.5 1.5ZM15.504 42h8.999c.83 0 1.5-.67 1.5-1.5v-6c0-.83-.67-1.5-1.5-1.5h-9c-.83 0-1.499.67-1.499 1.5v6c0 .83.67 1.5 1.5 1.5Zm1.5-6h5.999v3h-6v-3Zm31.495-3h-8.998c-.83 0-1.5.67-1.5 1.5v6c0 .83.67 1.5 1.5 1.5h8.998c.83 0 1.5-.67 1.5-1.5v-6c0-.83-.67-1.5-1.5-1.5ZM47 39h-5.998v-3H47v3Z" fill="currentColor"/></svg>
